packages/heroicons/src/prism/cancel-circle.svg

<!-- Generated by IcoMoon.io -->
<svg version="1.1" xmlns="http://www.w3.org/2000/svg" width="16" height="16" viewBox="0 0 16 16">
<title>cancel-circle</title>
<path fill="#4a4a4a" d="M8 0c-4.418 0-8 3.582-8 8s3.582 8 8 8 8-3.582 8-8-3.582-8-8-8zM12 10.5l-1.5 1.5-2.5-2.5-2.5 2.5-1.5-1.5 2.5-2.5-2.5-2.5 1.5-1.5 2.5 2.5 2.5-2.5 1.5 1.5-2.5 2.5 2.5 2.5z"></path>
</svg>

<svg xmlns="http://www.w3.org/2000/svg" aria-hidden="true" fill="currentColor" viewBox="0 0 16 16">
  <path d="M8 0a8 8 0 100 16A8 8 0 008 0zm4 10.5L10.5 12 8 9.5 5.5 12 4 10.5 6.5 8 4 5.5 5.5 4 8 6.5 10.5 4 12 5.5 9.5 8l2.5 2.5z"/>
</svg>
